artwork/resources/intui/icons/shell/tool-windows/component-tree_dark.svg

<svg width="16" height="16" viewBox="0 0 16 16" fill="none" xmlns="http://www.w3.org/2000/svg"><g clip-path="url(#clip0_2_1673)" stroke="#CED0D6"><path d="M1.5 8.5v-6h6v6h-6zM10.5 2.5h4v4h-4v-4zM10.5 9.5h4v4h-4v-4z" stroke-linejoin="round"/><path d="M8 4.5h2"/><path d="M4.5 9v2.5H10" stroke-linejoin="round"/></g><defs><clipPath id="clip0_2_1673"><path fill="#fff" d="M0 0h16v16H0z"/></clipPath></defs></svg>

<svg width="16" height="16" viewBox="0 0 16 16" fill="none" xmlns="http://www.w3.org/2000/svg">
<g clip-path="url(#clip0_2_1673)">
<path d="M1.5 8.5V2.5H7.5V8.5H1.5Z" stroke="#CED0D6" stroke-linejoin="round"/>
<path d="M10.5 2.5H14.5V6.5H10.5V2.5Z" stroke="#CED0D6" stroke-linejoin="round"/>
<path d="M10.5 9.5H14.5V13.5H10.5V9.5Z" stroke="#CED0D6" stroke-linejoin="round"/>
<path d="M8 4.5H10" stroke="#CED0D6"/>
<path d="M4.5 9V11.5H10" stroke="#CED0D6" stroke-linejoin="round"/>
</g>
<defs>
<clipPath id="clip0_2_1673">
<rect width="16" height="16" fill="white"/>
</clipPath>
</defs>
</svg>
